chrome/popup/checkmark.svg

<svg xmlns="http://www.w3.org/2000/svg" width="16" height="16" viewBox="0 0 16 16">
   <path
   style="fill:context-fill;fill-opacity:context-fill-opacity"
   d="M 14.5 2 A 0.5 0.5 0 0 0 14.121094 2.1738281 L 4.9921875 12.744141 L 0.87109375 8.1660156 A 0.5 0.5 0 0 0 0.16601562 8.1289062 A 0.5 0.5 0 0 0 0.12890625 8.8339844 L 4.6289062 13.833984 A 0.50005 0.50005 0 0 0 5.3789062 13.826172 L 14.878906 2.8261719 A 0.5 0.5 0 0 0 14.826172 2.1210938 A 0.5 0.5 0 0 0 14.5 2 z " />
</svg>

<svg xmlns="http://www.w3.org/2000/svg" width="16" height="16">
  <path style="fill:context-fill;fill-opacity:context-fill-opacity" d="M14.5 2a.5.5 0 0 0-.379.174l-9.129 10.57-4.12-4.578a.5.5 0 0 0-.706-.037.5.5 0 0 0-.037.705l4.5 5a.5.5 0 0 0 .75-.008l9.5-11a.5.5 0 0 0-.053-.705A.5.5 0 0 0 14.5 2z"/>
</svg>
